!!!COM: Britten, (Edward) Benjamin
!!!OTL: Serenade for Solo Tenor, Horn and Strings, op. 31
!!!OMV: Hymn (Ben Jonson)
!!!example: 795
!!!work: Bri-26
**kern	**dynam	**kern	**dynam	**kern	**dynam	**kern	**dynam	**kern	**dynam	**kern	**dynam	**kern
*part7	*part7	*part6	*part6	*part5	*part5	*part4	*part4	*part3	*part3	*part2	*part2	*part1
*staff7	*	*staff6	*	*staff5	*	*staff4	*	*staff3	*	*staff2	*	*staff1
*I"Contrabass	*	*I"Violoncello	*	*I"Viola	*	*I"Violin II	*	*I"Violin I	*	*I"Horn in F	*	*I"Treble Solo
*I'Cb.	*	*I'Vc.	*	*I'Vla.	*	*I'Vln. II	*	*I'Vln. I	*	*I'Hn.	*	*I'Tr. Solo
*clefF4	*	*clefF4	*	*clefC3	*	*clefG2	*	*clefG2	*	*clefG2	*	*clefG2
*k[b-e-]	*	*k[b-e-]	*	*k[b-e-]	*	*k[b-e-]	*	*k[b-e-]	*	*k[b-e-]	*	*k[b-e-]
*B-:	*	*B-:	*	*B-:	*	*B-:	*	*B-:	*	*B-:	*	*B-:
*M2/4	*	*M2/4	*	*M2/4	*	*M2/4	*	*M2/4	*	*M2/4	*	*M2/4
*MM121	*	*MM121	*	*MM121	*	*MM121	*	*MM121	*	*MM121	*	*MM121
=19	=	=	=	=	=	=	=	=	=	=	=	=
4r	.	4r	.	4r	.	4r	.	4r	.	(12FL	.	4r
.	.	.	.	.	.	.	.	.	.	12e-X)	.	.
.	.	.	.	.	.	.	.	.	.	12dJ	.	.
8r	.	8r	.	8r	.	8r	.	8r	.	[4c	.	8cc'L
8CC	.	8CC	.	8G	.	8c	.	8en	.	.	.	8dd'J
=20	=20	=20	=20	=20	=20	=20	=20	=20	=20	=20	=20	=20
8FF	.	8FF	.	8A	.	8c	.	8f	.	12cL]	.	8ee-'L
.	.	.	.	.	.	.	.	.	.	12c	.	.
8r	.	8r	.	8r	.	8r	.	8r	.	.	.	8dd'J
.	.	.	.	.	.	.	.	.	.	12dJ	.	.
8r	.	8r	.	8r	.	8r	.	8r	.	[4e-	.	8cc'L
8CC	.	8CC	.	8G	.	8c	.	8en	.	.	.	8dd'J
=21	=21	=21	=21	=21	=21	=21	=21	=21	=21	=21	=21	=21
8FF	.	8FF	.	8A	.	8c	.	8f	.	12e-L]	.	4ee-
.	.	.	.	.	.	.	.	.	.	12e-	.	.
8r	.	8r	.	8r	.	8r	.	8r	.	.	.	.
.	.	.	.	.	.	.	.	.	.	12dJ	.	.
8AAA-X	sf	8AA-X	sf	8E-	sf	8A-X	sf	8c	sf	12cL	<	4r
.	.	.	.	.	.	.	.	.	.	12d	.	.
8r	.	8r	.	8r	.	8r	.	8r	.	.	.	.
.	.	.	.	.	.	.	.	.	.	12e-J	.	.
=22	=22	=22	=22	=22	=22	=22	=22	=22	=22	=22	=22	=22
4r	.	4r	.	4r	.	4r	.	4r	.	12fL	.	2r
.	.	.	.	.	.	.	.	.	.	12g	.	.
.	.	.	.	.	.	.	.	.	.	12aJ	.	.
8GG^	pp	8BB-^L	pp	8d^	pp	8g^	pp	8b-^	pp	12b-L	[	.
.	.	.	.	.	.	.	.	.	.	12b-J	pp	.
8r	.	8DJ	.	8r	.	8r	.	8r	.	.	.	.
.	.	.	.	.	.	.	.	.	.	12r	.	.
=23	=23	=23	=23	=23	=23	=23	=23	=23	=23	=23	=23	=23
!!linebreak:original
8AA	.	8C	.	8cL	.	8f	.	8a	.	12aL	.	4.b-
.	.	.	.	.	.	.	.	.	.	12aJ	.	.
8r	.	8r	.	8dJ	.	8r	.	8r	.	.	.	.
.	.	.	.	.	.	.	.	.	.	12r	.	.
8BB-	.	8D	.	8B-	.	8e-	.	8gL	.	12gL	.	.
.	.	.	.	.	.	.	.	.	.	12gJ	.	.
8r	.	8r	.	8r	.	8r	.	8b-J	.	.	.	8b-
.	.	.	.	.	.	.	.	.	.	12r	.	.
=24	=24	=24	=24	=24	=24	=24	=24	=24	=24	=24	=24	=24
8EE-^L	.	8BB-^	.	8c^	.	8f^	.	8a^	.	12a^L	.	8cc
.	.	.	.	.	.	.	.	.	.	12aJ	.	.
8CCJ	.	8r	.	8r	.	8r	.	8r	.	.	.	8r
.	.	.	.	.	.	.	.	.	.	12r	.	.
8FF	.	8C	.	8B-	.	8e-L	.	8g	.	12gL	.	8dd
.	.	.	.	.	.	.	.	.	.	12gJ	.	.
8r	.	8r	.	8r	.	8dJ	.	8r	.	.	.	8r
.	.	.	.	.	.	.	.	.	.	12r	.	.
=25	=25	=25	=25	=25	=25	=25	=25	=25	=25	=25	=25	=25
8GG	.	8DL	.	8A	.	8c	.	8f	.	12fL	.	8ee-
.	.	.	.	.	.	.	.	.	.	12fJ	.	.
8r	.	8GJ	.	8r	.	8r	.	8r	.	.	.	8r
.	.	.	.	.	.	.	.	.	.	12r	.	.
8AA	.	8En	.	8A	.	8c#X	.	8enL	.	12enL	.	8ff
.	.	.	.	.	.	.	.	.	.	12eJ	.	.
8r	.	8r	.	8r	.	8r	.	8aJ	.	.	.	8r
.	.	.	.	.	.	.	.	.	.	12r	.	.
=26	=26	=26	=26	=26	=26	=26	=26	=26	=26	=26	=26	=26
8BB-	.	8F#XL	<	8AL	<	8dL	<	8dL	<	([4d	.	4.ff#X
8r	.	8AAJ	.	8GJ	.	8AJ	.	8enJ	.	.	.	.
4r	.	8D	.	8F#X	.	8A	.	8d	.	12dL]	.	.
.	.	.	.	.	.	.	.	.	.	12a)	.	.
.	.	8r	[	8r	[	8r	[	8r	[	.	.	8r
.	.	.	.	.	.	.	.	.	.	12f#XJ	.	.
=27	=27	=27	=27	=27	=27	=27	=27	=27	=27	=27	=27	=27
2r	.	8r	.	8r	.	8r	.	8r	.	([4d	.	2r
.	.	8AA	<	8G	<	8A	<	8en	<	.	.	.
.	.	8C	.	8F#X	.	8G	.	8d	.	12dL]	.	.
.	.	.	.	.	.	.	.	.	.	12a)	.	.
.	.	8r	[	8r	[	8r	[	8r	[	.	.	.
.	.	.	.	.	.	.	.	.	.	12f#XJ	.	.
==	==	==	==	==	==	==	==	==	==	==	==	==
*-	*-	*-	*-	*-	*-	*-	*-	*-	*-	*-	*-	*-
!!!CDT: 1913/11/22-1976/12/04
!!!CBL: Lowestoft, England
!!!CDL: Aldeburgh, England
!!!CNT: English
!!!AGN: Vocal; Solo
!!!MCN: Goehr, Walter
!!!MDT: 1943/10/15
!!!MGN: unknown
!!!MLC: London, United Kingdom
!!!MPD: 1943
!!!MPN: Brain, Dennis; Pears, Peter
!!!ODT: 1943
!!!PDT: 1944
!!!excerpt-start-measure: 19
!!!excerpt-end-measure: 27
!!!excerpt-start-time: 0:13
!!!excerpt-end-time: 0:21
!!!EEV: 2020/01/17
!!!system-decoration: s1,s2[(s3,s4,s5,s6,s7)]
!!!ONB: Converted from MusicXML on 2020/01/17
